X:1
T:Dear Jesus, Canst Thou Help Me?
T:Dear Jesus, Canst Thou Help Me?
T:William James Kirkpatrick
T:Frances Jane (Fanny) Crosby, 1896
T:Public Domain, Courtesy of the Cyber Hymnal™
T:Public Domain, Courtesy of the Cyber Hymnal™
C:William James Kirkpatrick
Z:Public Domain,
Z:Courtesy of the Cyber Hymnal™
%%score ( 1 2 ) ( 3 4 )
L:1/8
Q:1/4=160
M:6/4
K:F
V:1 treble 
V:2 treble 
V:3 bass 
V:4 bass 
V:1
 [CF]2 | [FA]4 [FA]2 (A2 ^G2) [FA]2 | [FB]6 [FA]4 [FA]2 | [EG]4 [EG]2 ([EG]2 [FA]2) [CG]2 | %4
w: 1.~Dear|Je- sus, canst * Thou|help me? My|soul is full * of|
w: 2.~I|feel I am * a|sin- ner, And|this my on- * ly|
w: 3.~I’ve|heard there is * a|fount- ain, Where|cleans- ing wa- * ters|
w: 4.~Thy|blood doth fill * that|fount- ain, Thy|blood so pure * and|
w: 5.~Dear|Je- sus, lov- * ing|Sav- ior; Thou|pre- cious dy- * ing|
 [CF]6- [CF]4 | F2 | [Fc]4 [Fc]2 (c2 =B2) [Fc]2 | [Fd]6 [Fc]4 [FA]2 | [EG]4 [EG]2 [FA]4 [FG]2 | %9
w: woe; *|My|heart is al- * most|break- ing, I’ve|no- where else to|
w: plea, *|The|sweet and blessèd * as-|sur- ance, That|Thou hast died for|
w: flow; *|My|sins though red * like|crim- son, May|now be white as|
w: free; *|That|blood a- vailed * for|o- thers, And|now a- vails for|
w: Lamb, *|Where|here my faith * is|plead- ing; Now|take me as I|
 [EG]6- [EG]4 ||"^Refrain" C2 | [GB]4 [GB]2 ([GB]2 [FA]2) [EG]2 | ([FA]6 [Fc]4) [Fd]2 | %13
w: go. *||||
w: me. *||||
w: snow. *|I’ve|no- where else * to|go, * Dear|
w: me. *|~|~ ~ ~ * ~|~ * ~|
w: am. *||||
 [Fc]4 [FA]2 ([FA]2 [CG]2) [DF]2 |S [EG]6- [EG]4 C2 | [FA]4 [FA]2 (A2 B2) [Fc]2 | %16
w: |||
w: |||
w: Je- sus, but * to|Thee, * And|so I lift * my|
w: ~ ~ ~ * ~|~ * And|so I lift * my|
w: |||
 [Fc]4 [FB]2 !fermata![FB]4 [DG]2 | [CF]4 [CF]2 [FA]4 [CG]2 | [CF]6- [CF]4!fine! | [Fc]2 | %20
w: ||||
w: ||||
w: voice and cry, Have|me- rcy, Lord on|me. *|Have|
w: voice and cry, Have|mer- cy, Lord on|me. *||
w: ||||
 [Fc]4 [Fc]2 [Fd]4 [Fd]2 | [Fc]6- [Fc]4 [FA]2 | [FA]4 [FA]2 [Ac]4 [FA]2 | [EG]6- [EG]4!D.S.! |] %24
w: ||||
w: ||||
w: mer- cy, Lord, on|me. * Have|mer- cy, Lord on|me. *|
w: ||||
w: ||||
V:2
 x2 | x6 F4 x2 | x12 | x12 | x10 | F2 | x6 F4 x2 | x12 | x12 | x10 || C2 | x12 | x12 | x12 | %14
 x10 C2 | x6 F4 x2 | x12 | x12 | x10 | x2 | x12 | x12 | x12 | x10 |] %24
V:3
 [F,A,]2 | [F,C]4 [F,C]2 (C2 =B,2) [F,C]2 | [F,D]6 [F,C]4 [F,C]2 | %3
 [C,B,]4 [C,B,]2 (B,2 C2) [C,B,]2 | [F,A,]6- [F,A,]4 | [F,A,]2 | %6
 [F,A,]4 [F,A,]2 (A,2 ^G,2) [F,A,]2 | [F,B,]6 [F,A,]4 [F,C]2 | [G,C]4 [G,C]2 [G,=B,]4 [G,B,]2 | %9
 [C,C]6- [C,C]4 || [C,C]2 | [C,C]4 [C,C]2 [C,C]4 [C,C]2 | ([F,C]6 [F,A,]4) [F,B,]2 | %13
 [F,A,]4 [F,C]2 C4 [D,=B,]2 | [C,C]6- [C,C]4 [F,A,]2 | [F,C]4 [F,C]2 (C2 D2) [F,_E]2 | %16
 [B,,D]4 [B,,D]2 !fermata![B,,D]4 [B,,B,]2 | [C,A,]4 [C,A,]2 [C,C]4 [C,B,]2 | [F,A,]6- [F,A,]4 | %19
 [F,A,]2 | [F,A,]4 [F,A,]2 [B,,B,]4 [D,B,]2 | [F,A,]6- [F,A,]4 [F,,F,C]2 | %22
 [F,,F,C]4 [F,,F,C]2 [F,,F,C]4 [F,,F,C]2 | [C,C]6- [C,C]4 |] %24
V:4
 x2 | x6 F,4 x2 | x12 | x6 C,4 x2 | x10 | x2 | x6 F,4 x2 | x12 | x12 | x10 || x2 | x12 | x12 | %13
 x6 (F,2 E,2) x2 | x12 | x6 F,4 x2 | x12 | x12 | x10 | x2 | x12 | x12 | x12 | x10 |] %24

